tools/download-figma-icons/icons/outlined-large/surf-fon.svg

<svg width="64" height="64" viewBox="0 0 64 64" fill="none" xmlns="http://www.w3.org/2000/svg">
<path fill-rule="evenodd" clip-rule="evenodd" d="M58.7 27H59.56C62.01 27 64 28.99 64 31.44V53.56C64 56.01 62.01 58 59.56 58H49.44C46.99 58 45 56.01 45 53.56V51H5.5C2.47 51 0 48.53 0 45.5V41.5C0 40.67 0.67 40 1.5 40H6V12.5C6 9.47 8.47 7 11.5 7H53.2C56.23 7 58.7 9.47 58.7 12.5V27ZM59.56 55C60.36 55 61 54.36 61 53.56V31.44C61 30.64 60.36 30 59.56 30H49.44C48.64 30 48 30.64 48 31.44V53.56C48 54.36 48.64 55 49.44 55H59.56ZM3 43V45.5C3 46.88 4.12 48 5.5 48H45V43H38.82L37.06 44.76C36.78 45.04 36.4 45.2 36 45.2H28C27.6 45.2 27.22 45.04 26.94 44.76L25.18 43H3ZM11.5 10C10.12 10 9 11.12 9 12.5V40H45V31.44C45 28.99 46.99 27 49.44 27H55.7V12.5C55.7 11.12 54.57 10 53.2 10H11.5ZM53.09 51.0001C53.29 50.4201 53.85 50.0001 54.5 50.0001C55.15 50.0001 55.71 50.4201 55.91 51.0001C55.97 51.1601 56 51.3201 56 51.5001C56 52.3301 55.33 53.0001 54.5 53.0001C53.67 53.0001 53 52.3301 53 51.5001C53 51.3201 53.03 51.1601 53.09 51.0001Z" fill="black"/>
</svg>

<svg xmlns="http://www.w3.org/2000/svg" width="64" height="64" fill="none" viewBox="0 0 64 64"><path fill="currentColor" fill-rule="evenodd" d="M58.7 27h.86c2.45 0 4.44 1.99 4.44 4.44v22.12c0 2.45-1.99 4.44-4.44 4.44H49.44C46.99 58 45 56.01 45 53.56V51H5.5A5.51 5.51 0 0 1 0 45.5v-4c0-.83.67-1.5 1.5-1.5H6V12.5C6 9.47 8.47 7 11.5 7h41.7c3.03 0 5.5 2.47 5.5 5.5zm.86 28c.8 0 1.44-.64 1.44-1.44V31.44c0-.8-.64-1.44-1.44-1.44H49.44c-.8 0-1.44.64-1.44 1.44v22.12c0 .8.64 1.44 1.44 1.44zM3 43v2.5A2.5 2.5 0 0 0 5.5 48H45v-5h-6.18l-1.76 1.76c-.28.28-.66.44-1.06.44h-8c-.4 0-.78-.16-1.06-.44L25.18 43zm8.5-33A2.5 2.5 0 0 0 9 12.5V40h36v-8.56c0-2.45 1.99-4.44 4.44-4.44h6.26V12.5c0-1.38-1.13-2.5-2.5-2.5zm41.59 41a1.495 1.495 0 0 1 2.82 0c.06.16.09.32.09.5 0 .83-.67 1.5-1.5 1.5s-1.5-.67-1.5-1.5c0-.18.03-.34.09-.5" clip-rule="evenodd"/></svg>
